X: 5054
T: Brickyard, The
R: jig
M: 6/8
K: Gdorian
DGG DGG|Acd fga|gfd dcA|cAG FEF|
DGG DGG|Acd fga|gfd c/c/AF|AGG GEF||
DGB DGB|AB/c/d fga|gfe dcA|cAG FEF|
DGG DGG|Acd fga|gfd c/c/AF|AG^F GAc||
^cdg gfd|~c3 dBG|Bcd fdc|BAB GFD|
G^FG ABA|AcA def|~g3 gdc|ABA FGc||
dgg gfd|cGc dBG|Bcd fdc|B/B/AB GFD|
G/G/^FG ABA|AcA def|~g3 gdc|ABA FGc||
cdg ge/f/g|af/g/a gfd|{B}cef Aff|Bff agf|
dgg ge/f/g|~a3 efa|gfd cAF|AG^F GAc||
dg/g/g ge/f/g|af/g/a gfd|~c3 Aff|~c3 agf|
dgg fga|gfd cdf|gfd cAF|AG^F G2F||

